.local/share/icons/Gruvbox-Plus-Dark/mimetypes/scalable/application-x-mswinurl.svg

<svg width="256" height="256" viewBox="0 0 256 256" fill="none" xmlns="http://www.w3.org/2000/svg">
<g opacity="0.4" filter="url(#filter0_f)">
<path d="M55.0839 15.5636H155.608L216.009 75.7129L216.011 224.609C216.011 233.52 208.749 240.737 199.838 240.737H55.0838C46.1734 240.737 39 233.564 39 224.654V31.6474C39 22.737 46.1734 15.5636 55.0838 15.5636H55.0839Z" fill="#282828"/>
</g>
<path d="M55.0839 15H155.608L216.009 75.1493L216.011 224.045C216.011 232.956 208.749 240.174 199.838 240.174H55.0838C46.1734 240.174 39 233 39 224.09V31.0838C39 22.1734 46.1734 15 55.0838 15H55.0839Z" fill="#ebdbb2"/>
<path opacity="0.2" d="M55.0839 15H155.608L216.009 75.1493L216.011 224.045C216.011 232.956 208.749 240.174 199.838 240.174H55.0838C46.1734 240.174 39 233 39 224.09V31.0838C39 22.1734 46.1734 15 55.0838 15H55.0839Z" fill="url(#paint0_linear)"/>
<path fill-rule="evenodd" clip-rule="evenodd" d="M155.608 20.3191H55.0839C49.1112 20.3191 44.3191 25.1111 44.3191 31.0838V224.09C44.3191 230.063 49.1111 234.855 55.0838 234.855H199.838C205.83 234.855 210.692 229.999 210.692 224.046V75.1493L155.608 20.3191ZM155.608 15H55.0839C46.1735 15 39 22.1734 39 31.0838V224.09C39 233 46.1734 240.174 55.0838 240.174H199.838C208.749 240.174 216.011 232.956 216.011 224.045L216.009 75.1493L155.608 15Z" fill="url(#paint1_linear)"/>
<path d="M150.656 105.348C151.28 105.972 151.776 106.713 152.114 107.529C152.452 108.345 152.626 109.219 152.626 110.102C152.626 110.985 152.452 111.859 152.114 112.675C151.776 113.491 151.28 114.232 150.656 114.856L114.856 150.656C114.232 151.281 113.49 151.776 112.675 152.114C111.859 152.453 110.984 152.627 110.101 152.627C109.218 152.627 108.344 152.453 107.528 152.114C106.712 151.776 105.971 151.281 105.347 150.656C104.722 150.032 104.227 149.291 103.889 148.475C103.551 147.659 103.377 146.785 103.377 145.902C103.377 145.019 103.551 144.145 103.889 143.329C104.227 142.513 104.722 141.772 105.347 141.148L141.147 105.348C141.771 104.723 142.512 104.228 143.328 103.89C144.144 103.551 145.018 103.377 145.901 103.377C146.784 103.377 147.659 103.551 148.475 103.89C149.29 104.228 150.032 104.723 150.656 105.348V105.348ZM109.532 165.588C104.263 170.858 95.6877 170.858 90.4147 165.588C85.1447 160.319 85.1447 151.744 90.4147 146.471L115.789 121.124C107.276 119.057 97.9177 121.348 91.2708 127.998L81.6088 137.661C71.4637 147.801 71.4637 164.25 81.6088 174.395C91.7538 184.535 108.198 184.535 118.343 174.395L128.005 164.732C134.652 158.086 136.943 148.732 134.879 140.214L109.532 165.584V165.588ZM137.664 81.605L128.001 91.268C121.351 97.918 119.048 107.257 121.116 115.774L146.474 90.416C151.744 85.146 160.319 85.146 165.588 90.416C170.857 95.685 170.857 104.26 165.588 109.529L140.229 134.887C148.743 136.951 158.085 134.652 164.731 128.002L174.394 118.339C184.535 108.194 184.535 91.75 174.394 81.605C164.249 71.465 147.805 71.465 137.66 81.605H137.664Z" fill="url(#paint2_linear)"/>
<path opacity="0.25" d="M155.608 17V61.2306C155.608 70.141 162.867 77.1605 171.777 77.1605L216.009 77.1493V75.1493L155.608 17Z" fill="#282828"/>
<path d="M155.608 15V59.2306C155.608 68.141 162.867 75.1605 171.777 75.1605L216.009 75.1493L155.608 15Z" fill="url(#paint3_linear)"/>
<defs>
<filter id="filter0_f" x="23.8778" y="0.441412" width="207.255" height="255.418" filterUnits="userSpaceOnUse" color-interpolation-filters="sRGB">
<feFlood flood-opacity="0" result="BackgroundImageFix"/>
<feBlend mode="normal" in="SourceGraphic" in2="BackgroundImageFix" result="shape"/>
<feGaussianBlur stdDeviation="7.5611" result="effect1_foregroundBlur"/>
</filter>
<linearGradient id="paint0_linear" x1="39" y1="15" x2="39" y2="240.174" gradientUnits="userSpaceOnUse">
<stop offset="1e-07" stop-color="#b16286"/>
<stop offset="1" stop-color="#8f3f71"/>
</linearGradient>
<linearGradient id="paint1_linear" x1="39" y1="15" x2="39" y2="240.174" gradientUnits="userSpaceOnUse">
<stop offset="1e-07" stop-color="#b16286"/>
<stop offset="1" stop-color="#8f3f71"/>
</linearGradient>
<linearGradient id="paint2_linear" x1="74" y1="74" x2="74" y2="182" gradientUnits="userSpaceOnUse">
<stop offset="1e-07" stop-color="#b16286"/>
<stop offset="1" stop-color="#8f3f71"/>
</linearGradient>
<linearGradient id="paint3_linear" x1="155.608" y1="15" x2="155.608" y2="75.1605" gradientUnits="userSpaceOnUse">
<stop offset="1e-07" stop-color="#b16286"/>
<stop offset="1" stop-color="#8f3f71"/>
</linearGradient>
</defs>
</svg>

<svg width="256" height="256" fill="none" version="1.1" viewBox="0 0 256 256" xmlns="http://www.w3.org/2000/svg">
  <path d="m55.08 15h100.5l60.4 60.15 2e-3 148.9c0 8.911-7.262 16.13-16.17 16.13h-144.8c-8.91 0-16.08-7.174-16.08-16.08v-193c0-8.91 7.173-16.08 16.08-16.08h1e-4z" fill="#ebdbb2"/>
  <path d="m55.08 15h100.5l60.4 60.15 2e-3 148.9c0 8.911-7.262 16.13-16.17 16.13h-144.8c-8.91 0-16.08-7.174-16.08-16.08v-193c0-8.91 7.173-16.08 16.08-16.08h1e-4z" fill="url(#paint0_linear)" opacity=".2"/>
  <path d="m155.6 20.32h-100.5c-5.973 0-10.76 4.792-10.76 10.76v193c0 5.973 4.792 10.76 10.76 10.76h144.8c5.992 0 10.85-4.856 10.85-10.81v-148.9l-55.08-54.83zm0-5.319h-100.5c-8.91 0-16.08 7.173-16.08 16.08v193c0 8.91 7.173 16.08 16.08 16.08h144.8c8.911 0 16.17-7.218 16.17-16.13l-2e-3 -148.9-60.4-60.15z" clip-rule="evenodd" fill="url(#paint0_linear)" fill-rule="evenodd"/>
  <path d="m150.7 105.3c0.624 0.624 1.12 1.365 1.458 2.181s0.512 1.69 0.512 2.573-0.174 1.757-0.512 2.573-0.834 1.557-1.458 2.181l-35.8 35.8c-0.624 0.625-1.366 1.12-2.181 1.458-0.816 0.339-1.691 0.513-2.574 0.513s-1.757-0.174-2.573-0.513c-0.816-0.338-1.557-0.833-2.181-1.458-0.625-0.624-1.12-1.365-1.458-2.181s-0.512-1.69-0.512-2.573 0.174-1.757 0.512-2.573 0.833-1.557 1.458-2.181l35.8-35.8c0.624-0.625 1.365-1.12 2.181-1.458 0.816-0.339 1.69-0.513 2.573-0.513s1.758 0.174 2.574 0.513c0.815 0.338 1.557 0.833 2.181 1.458zm-41.12 60.24c-5.269 5.27-13.84 5.27-19.12 0-5.27-5.269-5.27-13.84 0-19.12l25.37-25.35c-8.513-2.067-17.87 0.224-24.52 6.874l-9.662 9.663c-10.15 10.14-10.15 26.59 0 36.73 10.14 10.14 26.59 10.14 36.73 0l9.662-9.663c6.647-6.646 8.938-16 6.874-24.52l-25.35 25.37v4e-3zm28.13-83.98-9.663 9.663c-6.65 6.65-8.953 15.99-6.885 24.51l25.36-25.36c5.27-5.27 13.84-5.27 19.11 0 5.269 5.269 5.269 13.84 0 19.11l-25.36 25.36c8.514 2.064 17.86-0.235 24.5-6.885l9.663-9.663c10.14-10.14 10.14-26.59 0-36.73s-26.59-10.14-36.73 0h4e-3z" fill="url(#paint2_linear)"/>
  <path d="m155.6 17v44.23c0 8.91 7.259 15.93 16.17 15.93l44.23-0.0112v-2l-60.4-58.15z" fill="#282828" opacity=".25"/>
  <path d="m155.6 15v44.23c0 8.91 7.259 15.93 16.17 15.93l44.23-0.0112-60.4-60.15z" fill="url(#paint3_linear)"/>
  <defs>
    <linearGradient id="paint0_linear" x1="39" x2="39" y1="15" y2="240.2" gradientUnits="userSpaceOnUse">
      <stop stop-color="#b16286" offset="1e-7"/>
      <stop stop-color="#8f3f71" offset="1"/>
    </linearGradient>
    <linearGradient id="paint2_linear" x1="74" x2="74" y1="74" y2="182" gradientUnits="userSpaceOnUse">
      <stop stop-color="#b16286" offset="1e-7"/>
      <stop stop-color="#8f3f71" offset="1"/>
    </linearGradient>
    <linearGradient id="paint3_linear" x1="155.6" x2="155.6" y1="15" y2="75.16" gradientUnits="userSpaceOnUse">
      <stop stop-color="#b16286" offset="1e-7"/>
      <stop stop-color="#8f3f71" offset="1"/>
    </linearGradient>
  </defs>
</svg>
